assets/user-octagon.svg

<svg width="50" height="50" viewBox="0 0 50 50" fill="none" xmlns="http://www.w3.org/2000/svg">
<path d="M21.7291 5.04175C23.7499 3.87508 26.2499 3.87508 28.2916 5.04175L40.6666 12.1876C42.6874 13.3542 43.9374 15.521 43.9374 17.8752V32.1251C43.9374 34.4584 42.6874 36.6252 40.6666 37.8127L28.2916 44.9585C26.2708 46.1252 23.7708 46.1252 21.7291 44.9585L9.35408 37.8127C7.33325 36.646 6.08325 34.4792 6.08325 32.1251V17.8752C6.08325 15.5418 7.33325 13.3751 9.35408 12.1876L13.3124 9.89595" stroke="#292D32" stroke-width="3" stroke-linecap="round" stroke-linejoin="round"/>
<path d="M25.0002 22.9168C27.681 22.9168 29.8543 20.7435 29.8543 18.0626C29.8543 15.3817 27.681 13.2085 25.0002 13.2085C22.3193 13.2085 20.146 15.3817 20.146 18.0626C20.146 20.7435 22.3193 22.9168 25.0002 22.9168Z" stroke="#292D32" stroke-width="3" stroke-linecap="round" stroke-linejoin="round"/>
<path d="M33.3334 34.7083C33.3334 30.9583 29.6042 27.9167 25.0001 27.9167C20.3959 27.9167 16.6667 30.9583 16.6667 34.7083" stroke="#292D32" stroke-width="3" stroke-linecap="round" stroke-linejoin="round"/>
</svg>

<svg xmlns="http://www.w3.org/2000/svg" width="50" height="50" fill="none" stroke="#292d32" stroke-width="3" stroke-linejoin="round" xmlns:v="https://vecta.io/nano"><path d="M21.729 5.042a6.59 6.59 0 0 1 6.563 0l12.375 7.146c2.021 1.167 3.271 3.333 3.271 5.688v14.25c0 2.333-1.25 4.5-3.271 5.688l-12.375 7.146a6.59 6.59 0 0 1-6.562 0L9.354 37.813c-2.021-1.167-3.271-3.334-3.271-5.688v-14.25c0-2.333 1.25-4.5 3.271-5.688l3.958-2.292" stroke-linecap="round"/><path d="M25 22.917c2.681 0 4.854-2.173 4.854-4.854S27.681 13.209 25 13.209s-4.854 2.173-4.854 4.854 2.173 4.854 4.854 4.854z"/><path d="M33.333 34.708c0-3.75-3.729-6.792-8.333-6.792s-8.333 3.042-8.333 6.792" stroke-linecap="round"/></svg>
